client/filepreviewer/pdfjs/web/images/toolbarButton-openFile.svg

<svg width="16" height="16" viewBox="0 0 16 16" fill="none" xmlns="http://www.w3.org/2000/svg">
<path d="M10.4287 1.08398C10.5111 1.02905 10.608 0.999824 10.707 1H14.7L15 1.3V5.293C15 5.39194 14.9706 5.48864 14.9156 5.57088C14.8606 5.65311 14.7824 5.71718 14.691 5.75498C14.5996 5.79277 14.499 5.80259 14.402 5.78319C14.3049 5.76379 14.2159 5.71605 14.146 5.646L12.973 4.473L12.692 4.192L9.067 7.817C8.94923 7.93347 8.79034 7.99888 8.6247 7.99907C8.45907 7.99925 8.30003 7.93421 8.182 7.818C8.06518 7.70036 7.99962 7.54129 7.99962 7.3755C7.99962 7.20971 8.06518 7.05065 8.182 6.933L11.807 3.308L10.353 1.854C10.2829 1.78407 10.2351 1.6949 10.2158 1.59779C10.1964 1.50068 10.2063 1.40001 10.2442 1.30854C10.2821 1.21707 10.3464 1.13891 10.4287 1.08398ZM7.81694 2.06694C7.69973 2.18415 7.54076 2.25 7.375 2.25H2.85L2.25 2.85V13.15L2.85 13.75H13.15L13.75 13.15V8.625C13.75 8.45924 13.8158 8.30027 13.9331 8.18306C14.0503 8.06585 14.2092 8 14.375 8C14.5408 8 14.6997 8.06585 14.8169 8.18306C14.9342 8.30027 15 8.45924 15 8.625V13C15 13.5304 14.7893 14.0391 14.4142 14.4142C14.0391 14.7893 13.5304 15 13 15H3C2.46957 15 1.96086 14.7893 1.58579 14.4142C1.21071 14.0391 1 13.5304 1 13V3C1 2.46957 1.21071 1.96086 1.58579 1.58579C1.96086 1.21071 2.46957 1 3 1H7.375C7.54076 1 7.69973 1.06585 7.81694 1.18306C7.93415 1.30027 8 1.45924 8 1.625C8 1.79076 7.93415 1.94973 7.81694 2.06694Z" fill="black"/>
</svg>

<svg xmlns="http://www.w3.org/2000/svg" width="16" height="16" fill="none" viewBox="0 0 16 16"><path fill="#000" d="M10.429 1.084A.5.5 0 0 1 10.707 1H14.7l.3.3v3.993a.5.5 0 0 1-.854.353l-1.173-1.173-.281-.281-3.625 3.625a.63.63 0 0 1-.885.001.63.63 0 0 1 0-.885l3.625-3.625-1.454-1.454a.5.5 0 0 1 .076-.77m-2.612.983a.63.63 0 0 1-.442.183H2.85l-.6.6v10.3l.6.6h10.3l.6-.6V8.625a.625.625 0 1 1 1.25 0V13a2 2 0 0 1-2 2H3a2 2 0 0 1-2-2V3a2 2 0 0 1 2-2h4.375a.625.625 0 0 1 .442 1.067"/></svg>
